X:35
T:Concerto for Two Violins RV 522 - Largo
C:Vivaldi, A.
M:4/4
L:1/8
Q:1/4=54
K:Amin
|:E2|A4 GE CE|D4 C2 B,2|E4 FG AB|c4 B2 A2|
G4 FG AB|c4 d2 e2|f2 ed cB AG|A4 A2:|

